%
(PROBOTIX LinuxCNC)
G0 G54 G17 G20 G90 G40 G49 G64 P0.010
 
o100 CALL [1]
 
G0 Z0.9087
G0 M3 M8 S12000.000
G1   F30.0 Z0.3856 
G1 X1.0000  F100.0  
G0  
Z0.9087
G0 X0.0000 Y0.0000
Z0.9087
G1   F30.0 Z0.0625 
G1 X1.0000  F100.0  
G0  
Z0.9087
G0 X0.0000 Y11.5000

G1   F30.0 Z0.3856 
G1 X1.0000  F100.0  
G0  
Z0.9087
G0 X0.0000 

G1   F30.0 Z0.0625 
G1 X1.0000  F100.0  
G0  
Z0.9087
G0 X0.0000 Y22.0000

G1   F30.0 Z0.3856 
G1 X1.0000  F100.0  
G0  
Z0.9087
G0 X0.0000 

G1   F30.0 Z0.0625 
G1 X1.0000  F100.0  
G0  
Z0.9087
G0 X1.2500 

G1   F30.0 Z0.3856 
G1 X2.2500  F100.0  
G0  
Z0.9087
G0 X1.2500 

G1   F30.0 Z0.0625 
G1 X2.2500  F100.0  
G0  
Z0.9087
G0 X1.2500 Y11.5000

G1   F30.0 Z0.3856 
G1 X2.2500  F100.0  
G0  
Z0.9087
G0 X1.2500 

G1   F30.0 Z0.0625 
G1 X2.2500  F100.0  
G0  
Z0.9087
G0 X1.2500 Y0.0000

G1   F30.0 Z0.3856 
G1 X2.2500  F100.0  
G0  
Z0.9087
G0 X1.2500 

G1   F30.0 Z0.0625 
G1 X2.2500  F100.0  
G0  
Z0.9087
G00Z0.9087
M5
 
o100 CALL [2]
 
M3 M9 S12000.000
 
N850 G00 Z0.9087
M3 M8 S12000.000
G0 X0.1250 Y21.8750
Z0.9087
G1   F30.0 Z0.5837 
G1  Y0.1250 F100.0  
X0.3750  
 Y21.8750 
X0.1250  
G0  
Z0.9087
G1   F30.0 Z0.4587 
G1  Y0.1250 F100.0  
X0.3750  
 Y21.8750 
X0.1250  
G0  
Z0.9087
G1   F30.0 Z0.3337 
G1  Y0.1250 F100.0  
X0.3750  
 Y21.8750 
X0.1250  
G0  
Z0.9087
G1   F30.0 Z0.2087 
G1  Y0.1250 F100.0  
X0.3750  
 Y21.8750 
X0.1250  
G0  
Z0.9087
G0 X1.3750 

G1   F30.0 Z0.5837 
G1  Y0.1250 F100.0  
X1.6250  
 Y21.8750 
X1.3750  
G0  
Z0.9087
G1   F30.0 Z0.4587 
G1  Y0.1250 F100.0  
X1.6250  
 Y21.8750 
X1.3750  
G0  
Z0.9087
G1   F30.0 Z0.3337 
G1  Y0.1250 F100.0  
X1.6250  
 Y21.8750 
X1.3750  
G0  
Z0.9087
G1   F30.0 Z0.2087 
G1  Y0.1250 F100.0  
X1.6250  
 Y21.8750 
X1.3750  
G0  
Z0.9087
M3 M8 S12000.000
G0 X-0.1250 Y0.0000
Z0.9087
G1   F30.0 Z0.5906 
G1  Y22.0000 F100.0  
G2 X0.0000 Y22.1250 I0.1250 J0.0000 
G1 X1.0000    
G2 X1.1250 Y22.0000 I0.0000 J-0.1250 
G1  Y0.0000   
G2 X1.0000 Y-0.1250 I-0.1250 J0.0000 
G1 X0.0000    
G2 X-0.1250 Y0.0000 I0.0000 J0.1250 
G1   F30.0 Z0.4724 
G1  Y22.0000 F100.0  
G2 X0.0000 Y22.1250 I0.1250 J0.0000 
G1 X1.0000    
G2 X1.1250 Y22.0000 I0.0000 J-0.1250 
G1  Y0.0000   
G2 X1.0000 Y-0.1250 I-0.1250 J0.0000 
G1 X0.0000    
G2 X-0.1250 Y0.0000 I0.0000 J0.1250 
G1   F30.0 Z0.3543 
G1  Y22.0000 F100.0  
G2 X0.0000 Y22.1250 I0.1250 J0.0000 
G1 X1.0000    
G2 X1.1250 Y22.0000 I0.0000 J-0.1250 
G1  Y0.0000   
G2 X1.0000 Y-0.1250 I-0.1250 J0.0000 
G1 X0.0000    
G2 X-0.1250 Y0.0000 I0.0000 J0.1250 
G1   F30.0 Z0.2362 
G1  Y22.0000 F100.0  
G2 X0.0000 Y22.1250 I0.1250 J0.0000 
G1 X1.0000    
G2 X1.1250 Y22.0000 I0.0000 J-0.1250 
G1  Y0.0000   
G2 X1.0000 Y-0.1250 I-0.1250 J0.0000 
G1 X0.0000    
G2 X-0.1250 Y0.0000 I0.0000 J0.1250 
G1   F30.0 Z0.1181 
G1  Y22.0000 F100.0  
G2 X0.0000 Y22.1250 I0.1250 J0.0000 
G1 X1.0000    
G2 X1.1250 Y22.0000 I0.0000 J-0.1250 
G1  Y0.0000   
G2 X1.0000 Y-0.1250 I-0.1250 J0.0000 
G1 X0.0000    
G2 X-0.1250 Y0.0000 I0.0000 J0.1250 
G1   F30.0 Z0.0000 
G1  Y22.0000 F100.0  
G2 X0.0000 Y22.1250 I0.1250 J0.0000 
G1 X1.0000    
G2 X1.1250 Y22.0000 I0.0000 J-0.1250 
G1  Y0.0000   
G2 X1.0000 Y-0.1250 I-0.1250 J0.0000 
G1 X0.0000    
G2 X-0.1250 Y0.0000 I0.0000 J0.1250 
G0  
Z0.9087
M3 M8 S12000.000
G0 X1.1250 Y0.0000
Z0.9087
G1   F30.0 Z0.5905 
G1  Y22.0000 F100.0  
G2 X1.2500 Y22.1250 I0.1250 J0.0000 
G1 X2.2500    
G2 X2.3750 Y22.0000 I0.0000 J-0.1250 
G1  Y0.0000   
G2 X2.2500 Y-0.1250 I-0.1250 J0.0000 
G1 X1.2500    
G2 X1.1250 Y0.0000 I0.0000 J0.1250 
G1   F30.0 Z0.4724 
G1  Y22.0000 F100.0  
G2 X1.2500 Y22.1250 I0.1250 J0.0000 
G1 X2.2500    
G2 X2.3750 Y22.0000 I0.0000 J-0.1250 
G1  Y0.0000   
G2 X2.2500 Y-0.1250 I-0.1250 J0.0000 
G1 X1.2500    
G2 X1.1250 Y0.0000 I0.0000 J0.1250 
G1   F30.0 Z0.3543 
G1  Y22.0000 F100.0  
G2 X1.2500 Y22.1250 I0.1250 J0.0000 
G1 X2.2500    
G2 X2.3750 Y22.0000 I0.0000 J-0.1250 
G1  Y0.0000   
G2 X2.2500 Y-0.1250 I-0.1250 J0.0000 
G1 X1.2500    
G2 X1.1250 Y0.0000 I0.0000 J0.1250 
G1   F30.0 Z0.2362 
G1  Y22.0000 F100.0  
G2 X1.2500 Y22.1250 I0.1250 J0.0000 
G1 X2.2500    
G2 X2.3750 Y22.0000 I0.0000 J-0.1250 
G1  Y0.0000   
G2 X2.2500 Y-0.1250 I-0.1250 J0.0000 
G1 X1.2500    
G2 X1.1250 Y0.0000 I0.0000 J0.1250 
G1   F30.0 Z0.1181 
G1  Y22.0000 F100.0  
G2 X1.2500 Y22.1250 I0.1250 J0.0000 
G1 X2.2500    
G2 X2.3750 Y22.0000 I0.0000 J-0.1250 
G1  Y0.0000   
G2 X2.2500 Y-0.1250 I-0.1250 J0.0000 
G1 X1.2500    
G2 X1.1250 Y0.0000 I0.0000 J0.1250 
G1   F30.0 Z0.0000 
G1  Y22.0000 F100.0  
G2 X1.2500 Y22.1250 I0.1250 J0.0000 
G1 X2.2500    
G2 X2.3750 Y22.0000 I0.0000 J-0.1250 
G1  Y0.0000   
G2 X2.2500 Y-0.1250 I-0.1250 J0.0000 
G1 X1.2500    
G2 X1.1250 Y0.0000 I0.0000 J0.1250 
G0  
Z0.9087
G0 Z0.9087
G28
M30
%
