%
(PROBOTIX LinuxCNC)
G0 G54 G17 G20 G90 G40 G49 G64 P0.010
 
o100 CALL [1]
 
G0 Z0.9090
G0 M3 M8 S12000.000
G1   F30.0 Z0.4757 
G1 X1.0000  F100.0  
X2.2500  
G0  
Z0.9090
G0 X0.0000 Y0.0000
Z0.9090
G1   F30.0 Z0.2423 
G1 X1.0000  F100.0  
X2.2500  
G0  
Z0.9090
G0 X0.0000 

G1   F30.0 Z0.0090 
G1 X1.0000  F100.0  
X2.2500  
G0  
Z0.9090
G0 X0.0000 Y11.3787

G1   F30.0 Z0.4757 
G1 X1.0000  F100.0  
X2.2500  
G0  
Z0.9090
G0 X0.0000 

G1   F30.0 Z0.2423 
G1 X1.0000  F100.0  
X2.2500  
G0  
Z0.9090
G0 X0.0000 

G1   F30.0 Z0.0090 
G1 X1.0000  F100.0  
X2.2500  
G0  
Z0.9090
G0 X0.0000 Y21.7573

G1   F30.0 Z0.4757 
G1 X1.0000  F100.0  
X2.2500  
G0  
Z0.9090
G0 X0.0000 

G1   F30.0 Z0.2423 
G1 X1.0000  F100.0  
X2.2500  
G0  
Z0.9090
G0 X0.0000 

G1   F30.0 Z0.0090 
G1 X1.0000  F100.0  
X2.2500  
G0  
Z0.9090
G00Z0.9090
M5
 
o100 CALL [2]
 
M3 M9 S12000.000
 
N760 G00 Z0.9090
M3 M8 S12000.000
G0 X0.1250 Y21.6323
Z0.9090
G1   F30.0 Z0.5990 
G1  Y0.1250 F150.0  
X0.3750  
 Y21.6323 
X0.1250  
G0  
Z0.9090
G1   F30.0 Z0.4890 
G1  Y0.1250 F150.0  
X0.3750  
 Y21.6323 
X0.1250  
G0  
Z0.9090
G1   F30.0 Z0.3790 
G1  Y0.1250 F150.0  
X0.3750  
 Y21.6323 
X0.1250  
G0  
Z0.9090
G0 X1.3750 

G1   F30.0 Z0.5990 
G1  Y0.1250 F150.0  
X1.6250  
 Y21.6323 
X1.3750  
G0  
Z0.9090
G1   F30.0 Z0.4890 
G1  Y0.1250 F150.0  
X1.6250  
 Y21.6323 
X1.3750  
G0  
Z0.9090
G1   F30.0 Z0.3790 
G1  Y0.1250 F150.0  
X1.6250  
 Y21.6323 
X1.3750  
G0  
Z0.9090
M3 M8 S12000.000
G0 X-0.1250 Y0.0000
Z0.9090
G1   F30.0 Z0.5912 
G1  Y21.7573 F150.0  
G2 X0.0000 Y21.8823 I0.1250 J0.0000 
G1 X1.0000    
G2 X1.1250 Y21.7573 I0.0000 J-0.1250 
G1  Y0.0000   
G2 X1.0000 Y-0.1250 I-0.1250 J0.0000 
G1 X0.0000    
G2 X-0.1250 Y0.0000 I0.0000 J0.1250 
G1   F30.0 Z0.4733 
G1  Y21.7573 F150.0  
G2 X0.0000 Y21.8823 I0.1250 J0.0000 
G1 X1.0000    
G2 X1.1250 Y21.7573 I0.0000 J-0.1250 
G1  Y0.0000   
G2 X1.0000 Y-0.1250 I-0.1250 J0.0000 
G1 X0.0000    
G2 X-0.1250 Y0.0000 I0.0000 J0.1250 
G1   F30.0 Z0.3555 
G1  Y21.7573 F150.0  
G2 X0.0000 Y21.8823 I0.1250 J0.0000 
G1 X1.0000    
G2 X1.1250 Y21.7573 I0.0000 J-0.1250 
G1  Y0.0000   
G2 X1.0000 Y-0.1250 I-0.1250 J0.0000 
G1 X0.0000    
G2 X-0.1250 Y0.0000 I0.0000 J0.1250 
G1   F30.0 Z0.2377 
G1  Y21.7573 F150.0  
G2 X0.0000 Y21.8823 I0.1250 J0.0000 
G1 X1.0000    
G2 X1.1250 Y21.7573 I0.0000 J-0.1250 
G1  Y0.0000   
G2 X1.0000 Y-0.1250 I-0.1250 J0.0000 
G1 X0.0000    
G2 X-0.1250 Y0.0000 I0.0000 J0.1250 
G1   F30.0 Z0.1198 
G1  Y21.7573 F150.0  
G2 X0.0000 Y21.8823 I0.1250 J0.0000 
G1 X1.0000    
G2 X1.1250 Y21.7573 I0.0000 J-0.1250 
G1  Y0.0000   
G2 X1.0000 Y-0.1250 I-0.1250 J0.0000 
G1 X0.0000    
G2 X-0.1250 Y0.0000 I0.0000 J0.1250 
G1   F30.0 Z0.0020 
G1  Y21.7573 F150.0  
G2 X0.0000 Y21.8823 I0.1250 J0.0000 
G1 X1.0000    
G2 X1.1250 Y21.7573 I0.0000 J-0.1250 
G1  Y0.0000   
G2 X1.0000 Y-0.1250 I-0.1250 J0.0000 
G1 X0.0000    
G2 X-0.1250 Y0.0000 I0.0000 J0.1250 
G0  
Z0.9090
M3 M8 S12000.000
G0 X1.1250 Y0.0000
Z0.9090
G1   F30.0 Z0.5912 
G1  Y21.7573 F150.0  
G2 X1.2500 Y21.8823 I0.1250 J0.0000 
G1 X2.2500    
G2 X2.3750 Y21.7573 I0.0000 J-0.1250 
G1  Y0.0000   
G2 X2.2500 Y-0.1250 I-0.1250 J0.0000 
G1 X1.2500    
G2 X1.1250 Y0.0000 I0.0000 J0.1250 
G1   F30.0 Z0.4733 
G1  Y21.7573 F150.0  
G2 X1.2500 Y21.8823 I0.1250 J0.0000 
G1 X2.2500    
G2 X2.3750 Y21.7573 I0.0000 J-0.1250 
G1  Y0.0000   
G2 X2.2500 Y-0.1250 I-0.1250 J0.0000 
G1 X1.2500    
G2 X1.1250 Y0.0000 I0.0000 J0.1250 
G1   F30.0 Z0.3555 
G1  Y21.7573 F150.0  
G2 X1.2500 Y21.8823 I0.1250 J0.0000 
G1 X2.2500    
G2 X2.3750 Y21.7573 I0.0000 J-0.1250 
G1  Y0.0000   
G2 X2.2500 Y-0.1250 I-0.1250 J0.0000 
G1 X1.2500    
G2 X1.1250 Y0.0000 I0.0000 J0.1250 
G1   F30.0 Z0.2377 
G1  Y21.7573 F150.0  
G2 X1.2500 Y21.8823 I0.1250 J0.0000 
G1 X2.2500    
G2 X2.3750 Y21.7573 I0.0000 J-0.1250 
G1  Y0.0000   
G2 X2.2500 Y-0.1250 I-0.1250 J0.0000 
G1 X1.2500    
G2 X1.1250 Y0.0000 I0.0000 J0.1250 
G1   F30.0 Z0.1198 
G1  Y21.7573 F150.0  
G2 X1.2500 Y21.8823 I0.1250 J0.0000 
G1 X2.2500    
G2 X2.3750 Y21.7573 I0.0000 J-0.1250 
G1  Y0.0000   
G2 X2.2500 Y-0.1250 I-0.1250 J0.0000 
G1 X1.2500    
G2 X1.1250 Y0.0000 I0.0000 J0.1250 
G1   F30.0 Z0.0020 
G1  Y21.7573 F150.0  
G2 X1.2500 Y21.8823 I0.1250 J0.0000 
G1 X2.2500    
G2 X2.3750 Y21.7573 I0.0000 J-0.1250 
G1  Y0.0000   
G2 X2.2500 Y-0.1250 I-0.1250 J0.0000 
G1 X1.2500    
G2 X1.1250 Y0.0000 I0.0000 J0.1250 
G0  
Z0.9090
G0 Z0.9090
G28
M30
%
